;FLAVOR:UltiGCode
;TIME:16574
;MATERIAL:58976
;MATERIAL2:0
;NOZZLE_DIAMETER:0.4
;Generated with Cura_SteamEngine 3.6.0
M82 ;absolute extrusion mode

G92 E0
G10
;LAYER_COUNT:250
;LAYER:0
M107
G0 F3600 X20.039 Y96.193 Z0.3
;TYPE:SKIRT
G11
G1 F1800 X20.813 Y96.034 E0.09482
G1 X21.598 Y95.953 E0.18952
G1 X22.388 Y95.953 E0.28432
G1 X23.428 Y96.075 E0.40998
G1 X31.331 Y97.547 E1.37465
G1 X39.058 Y98.443 E2.3081
G1 X46.814 Y98.807 E3.23984
G1 X54.588 Y98.639 E4.17294
G1 X62.319 Y97.94 E5.10445
G1 X63.7 Y97.719 E5.27227
G1 X63.7 Y96.369 E5.43427
G1 X63.74 Y95.58 E5.52908
G1 X63.859 Y94.8 E5.62376
G1 X64.057 Y94.035 E5.71858
G1 X64.331 Y93.295 E5.81328
G1 X64.679 Y92.586 E5.90805
G1 X65.097 Y91.915 E6.00292
G1 X65.58 Y91.291 E6.09761
G1 X66.123 Y90.718 E6.19234
G1 X66.722 Y90.203 E6.28713
G1 X67.37 Y89.752 E6.38187
G1 X68.061 Y89.368 E6.47674
G1 X68.786 Y89.056 E6.57145
G1 X69.539 Y88.819 E6.66618
G1 X70.313 Y88.66 E6.761
G1 X71.098 Y88.579 E6.8557
G1 X71.5 Y88.569 E6.90395
G1 X151.5 Y88.569 E16.50395
G1 X152.289 Y88.609 E16.59876
G1 X153.069 Y88.728 E16.69344
G1 X153.834 Y88.926 E16.78826
G1 X154.574 Y89.2 E16.88296
G1 X155.283 Y89.548 E16.97773
G1 X155.954 Y89.966 E17.0726
G1 X156.578 Y90.449 E17.16729
G1 X157.151 Y90.992 E17.26202
G1 X157.666 Y91.591 E17.35681
G1 X158.117 Y92.239 E17.45155
G1 X158.501 Y92.93 E17.54642
G1 X158.813 Y93.655 E17.64113
G1 X159.05 Y94.408 E17.73586
G1 X159.209 Y95.182 E17.83068
G1 X159.29 Y95.967 E17.92538
G1 X159.3 Y96.369 E17.97363
G1 X159.3 Y97.768 E18.14151
G1 X160.72 Y98.006 E18.31429
G1 X168.431 Y98.738 E19.24377
G1 X176.184 Y98.918 E20.17438
G1 X183.931 Y98.543 E21.10511
G1 X191.626 Y97.615 E22.0352
G1 X199.517 Y96.086 E22.99973
G1 X200.299 Y95.976 E23.0945
G1 X201.088 Y95.944 E23.18925
G1 X201.876 Y95.993 E23.284
G1 X202.655 Y96.122 E23.37875
G1 X203.417 Y96.328 E23.47347
G1 X204.155 Y96.61 E23.56828
G1 X204.86 Y96.966 E23.66305
G1 X205.525 Y97.391 E23.75776
G1 X206.145 Y97.881 E23.85259
G1 X206.711 Y98.431 E23.94729
G1 X207.219 Y99.036 E24.04209
G1 X207.663 Y99.689 E24.13685
G1 X208.039 Y100.383 E24.23157
G1 X208.343 Y101.112 E24.32635
G1 X208.571 Y101.868 E24.4211
G1 X208.722 Y102.643 E24.51585
G1 X208.8 Y103.744 E24.6483
G1 X208.8 Y118.743 E26.44818
G1 X208.76 Y119.532 E26.54299
G1 X208.641 Y120.312 E26.63767
G1 X208.443 Y121.077 E26.73249
G1 X208.169 Y121.817 E26.82719
G1 X207.821 Y122.526 E26.92196
G1 X207.403 Y123.197 E27.01683
G1 X206.92 Y123.821 E27.11152
G1 X206.377 Y124.394 E27.20625
G1 X205.778 Y124.909 E27.30104
G1 X205.13 Y125.36 E27.39578
G1 X204.439 Y125.744 E27.49065
G1 X203.714 Y126.056 E27.58536
G1 X202.961 Y126.293 E27.68009
G1 X202.229 Y126.446 E27.76983
G1 X184.462 Y129.281 E29.92884
G1 X184.191 Y129.319 E29.96168
G1 X166.335 Y131.528 E32.12073
G1 X166.062 Y131.557 E32.15368
G1 X148.14 Y133.136 E34.31265
G1 X147.866 Y133.155 E34.34561
G1 X129.899 Y134.104 E36.50465
G1 X129.625 Y134.114 E36.53755
G1 X111.637 Y134.43 E38.69645
G1 X111.363 Y134.43 E38.72933
G1 X93.375 Y134.114 E40.88822
G1 X93.101 Y134.104 E40.92112
G1 X75.134 Y133.155 E43.08017
G1 X74.86 Y133.136 E43.11313
G1 X56.937 Y131.557 E45.27222
G1 X56.664 Y131.528 E45.30516
G1 X38.809 Y129.319 E47.4641
G1 X38.538 Y129.281 E47.49693
G1 X20.771 Y126.447 E49.65593
G1 X19.999 Y126.283 E49.75063
G1 X19.247 Y126.042 E49.8454
G1 X18.523 Y125.726 E49.94019
G1 X17.835 Y125.339 E50.03492
G1 X17.189 Y124.884 E50.12973
G1 X16.593 Y124.366 E50.22449
G1 X16.052 Y123.79 E50.31932
G1 X15.573 Y123.163 E50.414
G1 X15.159 Y122.491 E50.50872
G1 X14.815 Y121.78 E50.6035
G1 X14.545 Y121.038 E50.69825
G1 X14.351 Y120.272 E50.79307
G1 X14.236 Y119.491 E50.8878
G1 X14.2 Y118.744 E50.97755
G1 X14.2 Y103.743 E52.77767
G1 X14.24 Y102.954 E52.87247
G1 X14.359 Y102.174 E52.96715
G1 X14.557 Y101.409 E53.06198
G1 X14.831 Y100.669 E53.15667
G1 X15.179 Y99.96 E53.25144
G1 X15.597 Y99.289 E53.34631
G1 X16.08 Y98.665 E53.441
G1 X16.623 Y98.092 E53.53573
G1 X17.222 Y97.577 E53.63053
G1 X17.87 Y97.126 E53.72526
G1 X18.561 Y96.742 E53.82013
G1 X19.286 Y96.43 E53.91484
G1 X20.039 Y96.193 E54.00957
G0 F3600 X20.393 Y96.52
G1 F1800 X21.151 Y96.392 E54.10182
G1 X21.919 Y96.343 E54.19417
G1 X22.687 Y96.375 E54.28641
G1 X23.355 Y96.468 E54.36734
G1 X31.27 Y97.942 E55.33347
G1 X39.022 Y98.841 E56.26994
G1 X46.819 Y99.207 E57.20662
G1 X54.604 Y99.039 E58.14103
G1 X62.376 Y98.336 E59.07748
G1 X64.1 Y98.06 E59.28699
G1 X64.1 Y96.369 E59.48991
G1 X64.14 Y95.601 E59.5822
G1 X64.259 Y94.841 E59.67451
G1 X64.457 Y94.098 E59.76678
G1 X64.731 Y93.379 E59.85912
G1 X65.078 Y92.693 E59.95137
G1 X65.494 Y92.046 E60.04367
G1 X65.975 Y91.446 E60.13595
G1 X66.516 Y90.899 E60.22827
G1 X67.111 Y90.411 E60.32062
G1 X67.753 Y89.988 E60.41287
G1 X68.436 Y89.633 E60.50524
G1 X69.151 Y89.352 E60.59743
G1 X69.893 Y89.146 E60.68984
G1 X70.651 Y89.018 E60.78209
G1 X71.5 Y88.969 E60.88414
G1 X151.5 Y88.969 E70.48414
G1 X152.268 Y89.009 E70.57642
G1 X153.028 Y89.128 E70.66873
G1 X153.771 Y89.326 E70.76101
G1 X154.49 Y89.6 E70.85334
G1 X155.176 Y89.947 E70.94559
G1 X155.823 Y90.363 E71.03789
G1 X156.423 Y90.844 E71.13017
G1 X156.97 Y91.385 E71.2225
G1 X157.458 Y91.98 E71.31484
G1 X157.881 Y92.622 E71.4071
G1 X158.236 Y93.305 E71.49947
G1 X158.517 Y94.02 E71.59166
G1 X158.723 Y94.762 E71.68406
G1 X158.851 Y95.52 E71.77631
G1 X158.9 Y96.369 E71.87836
G1 X158.9 Y98.107 E72.08692
G1 X160.658 Y98.402 E72.30083
G1 X168.413 Y99.138 E73.23561
G1 X176.194 Y99.318 E74.16958
G1 X183.956 Y98.942 E75.10211
G1 X191.693 Y98.009 E76.03728
G1 X199.593 Y96.479 E77.0029
G1 X200.354 Y96.372 E77.09511
G1 X201.123 Y96.345 E77.18745
G1 X201.89 Y96.398 E77.27971
G1 X202.648 Y96.53 E77.37204
G1 X203.388 Y96.74 E77.46435
G1 X204.102 Y97.026 E77.55664
G1 X204.783 Y97.384 E77.64897
G1 X205.423 Y97.811 E77.74129
G1 X206.015 Y98.302 E77.83359
G1 X206.552 Y98.852 E77.92583
G1 X207.03 Y99.455 E78.01816
G1 X207.443 Y100.104 E78.11048
G1 X207.786 Y100.792 E78.20273
G1 X208.056 Y101.513 E78.29512
G1 X208.249 Y102.257 E78.38735
G1 X208.364 Y103.017 E78.47959
G1 X208.4 Y103.744 E78.56694
G1 X208.4 Y118.743 E80.36682
G1 X208.36 Y119.511 E80.4591
G1 X208.241 Y120.271 E80.55141
G1 X208.043 Y121.014 E80.64368
G1 X207.769 Y121.733 E80.73602
G1 X207.422 Y122.419 E80.82827
G1 X207.006 Y123.066 E80.92057
G1 X206.525 Y123.666 E81.01285
G1 X205.984 Y124.213 E81.10517
G1 X205.389 Y124.701 E81.19752
G1 X204.747 Y125.124 E81.28978
G1 X204.064 Y125.479 E81.38215
G1 X203.349 Y125.76 E81.47433
G1 X202.607 Y125.966 E81.56674
G1 X202.166 Y126.051 E81.62064
G1 X184.399 Y128.886 E83.77965
G1 X184.142 Y128.922 E83.81079
G1 X166.286 Y131.131 E85.96984
G1 X166.026 Y131.158 E86.00121
G1 X148.104 Y132.737 E88.16018
G1 X147.845 Y132.756 E88.19134
G1 X129.878 Y133.705 E90.35039
G1 X129.618 Y133.714 E90.38161
G1 X111.63 Y134.03 E92.5405
G1 X111.37 Y134.03 E92.5717
G1 X93.382 Y133.714 E94.73059
G1 X93.122 Y133.705 E94.76181
G1 X75.155 Y132.756 E96.92086
G1 X74.896 Y132.737 E96.95202
G1 X56.973 Y131.158 E99.11111
G1 X56.713 Y131.131 E99.14248
G1 X38.858 Y128.922 E101.30142
G1 X38.601 Y128.886 E101.33256
G1 X20.834 Y126.052 E103.49155
G1 X20.082 Y125.891 E103.58383
G1 X19.351 Y125.653 E103.67609
G1 X18.648 Y125.341 E103.76838
G1 X17.981 Y124.958 E103.86068
G1 X17.358 Y124.507 E103.95297
G1 X16.785 Y123.994 E104.04526
G1 X16.268 Y123.424 E104.13761
G1 X15.813 Y122.804 E104.22989
G1 X15.425 Y122.14 E104.32218
G1 X15.108 Y121.439 E104.4145
G1 X14.866 Y120.709 E104.50679
G1 X14.7 Y119.958 E104.59908
G1 X14.614 Y119.194 E104.69134
G1 X14.6 Y118.744 E104.74537
G1 X14.6 Y103.743 E106.54549
G1 X14.64 Y102.975 E106.63777
G1 X14.759 Y102.215 E106.73008
G1 X14.957 Y101.472 E106.82236
G1 X15.231 Y100.753 E106.91469
G1 X15.578 Y100.067 E107.00694
G1 X15.994 Y99.42 E107.09924
G1 X16.475 Y98.82 E107.19152
G1 X17.016 Y98.273 E107.28385
G1 X17.611 Y97.785 E107.37619
G1 X18.253 Y97.362 E107.46845
G1 X18.936 Y97.007 E107.56082
G1 X19.651 Y96.726 E107.65301
G1 X20.393 Y96.52 E107.74541
G0 F3600 X20.013 Y97.031
G1 F1800 X20.741 Y96.857 E107.83523
G1 X21.483 Y96.762 E107.925
G1 X22.231 Y96.747 E108.01478
G1 X23.281 Y96.861 E108.14152
G1 X31.223 Y98.34 E109.11094
G1 X38.985 Y99.24 E110.04863
G1 X46.809 Y99.608 E110.98854
G1 X54.62 Y99.438 E111.92608
G1 X62.431 Y98.732 E112.86723
G1 X64.5 Y98.401 E113.11866
G1 X64.5 Y96.369 E113.3625
G1 X64.54 Y95.622 E113.45227
G1 X64.659 Y94.884 E113.54198
G1 X64.857 Y94.162 E113.63181
G1 X65.13 Y93.466 E113.72153
G1 X65.477 Y92.803 E113.81133
G1 X65.892 Y92.18 E113.90116
G1 X66.371 Y91.606 E113.99087
G1 X66.908 Y91.085 E114.08065
G1 X67.498 Y90.626 E114.17035
G1 X68.134 Y90.231 E114.2602
G1 X68.808 Y89.907 E114.34994
G1 X69.513 Y89.657 E114.4397
G1 X70.241 Y89.483 E114.52952
G1 X70.983 Y89.388 E114.61929
G1 X71.5 Y89.369 E114.68137
G1 X151.5 Y89.369 E124.28137
G1 X152.247 Y89.409 E124.37114
G1 X152.985 Y89.528 E124.46084
G1 X153.707 Y89.726 E124.55068
G1 X154.403 Y89.999 E124.64039
G1 X155.066 Y90.346 E124.73019
G1 X155.689 Y90.761 E124.82002
G1 X156.263 Y91.24 E124.90973
G1 X156.784 Y91.777 E124.99952
G1 X157.243 Y92.367 E125.08922
G1 X157.638 Y93.003 E125.17906
G1 X157.962 Y93.677 E125.2688
G1 X158.212 Y94.382 E125.35856
G1 X158.386 Y95.11 E125.44838
G1 X158.481 Y95.852 E125.53815
G1 X158.5 Y96.369 E125.60023
G1 X158.5 Y98.445 E125.84935
G1 X160.61 Y98.799 E126.10609
G1 X168.393 Y99.538 E127.04425
G1 X176.19 Y99.718 E127.98014
G1 X183.996 Y99.34 E128.91796
G1 X191.761 Y98.404 E129.8565
G1 X199.669 Y96.872 E130.82311
G1 X200.41 Y96.769 E130.91288
G1 X201.157 Y96.746 E131.00256
G1 X201.903 Y96.803 E131.09234
G1 X202.639 Y96.939 E131.18216
G1 X203.356 Y97.152 E131.27192
G1 X204.046 Y97.441 E131.36169
G1 X204.701 Y97.802 E131.45143
G1 X205.314 Y98.231 E131.54122
G1 X205.878 Y98.723 E131.63103
G1 X206.386 Y99.272 E131.72079
G1 X206.832 Y99.873 E131.8106
G1 X207.212 Y100.517 E131.90033
G1 X207.521 Y101.198 E131.99007
G1 X207.755 Y101.909 E132.07989
G1 X207.912 Y102.64 E132.16961
G1 X208 Y103.744 E132.30251
G1 X208 Y118.743 E134.10239
G1 X207.96 Y119.49 E134.19216
G1 X207.841 Y120.228 E134.28186
G1 X207.643 Y120.95 E134.3717
G1 X207.37 Y121.646 E134.46141
G1 X207.023 Y122.309 E134.55121
G1 X206.608 Y122.932 E134.64104
G1 X206.129 Y123.506 E134.73075
G1 X205.592 Y124.027 E134.82054
G1 X205.002 Y124.486 E134.91024
G1 X204.366 Y124.881 E135.00008
G1 X203.692 Y125.205 E135.08982
G1 X202.987 Y125.455 E135.17958
G1 X202.103 Y125.656 E135.28837
G1 X184.336 Y128.491 E137.44738
G1 X184.092 Y128.525 E137.47695
G1 X166.236 Y130.734 E139.636
G1 X165.991 Y130.76 E139.66556
G1 X148.069 Y132.339 E141.82454
G1 X147.824 Y132.356 E141.85401
G1 X129.857 Y133.305 E144.01305
G1 X129.611 Y133.314 E144.04259
G1 X111.623 Y133.63 E146.20148
G1 X111.377 Y133.63 E146.231
G1 X93.389 Y133.314 E148.3899
G1 X93.143 Y133.305 E148.41944
G1 X75.176 Y132.356 E150.57848
G1 X74.931 Y132.339 E150.60795
G1 X57.008 Y130.76 E152.76704
G1 X56.763 Y130.734 E152.79661
G1 X38.908 Y128.525 E154.95554
G1 X38.664 Y128.491 E154.98511
G1 X20.897 Y125.657 E157.1441
G1 X20.166 Y125.499 E157.23385
G1 X19.456 Y125.265 E157.32355
G1 X18.774 Y124.956 E157.4134
G1 X18.13 Y124.577 E157.50307
G1 X17.529 Y124.13 E157.59295
G1 X16.98 Y123.623 E157.68263
G1 X16.488 Y123.059 E157.77244
G1 X16.059 Y122.446 E157.86222
G1 X15.698 Y121.791 E157.95197
G1 X15.409 Y121.101 E158.04174
G1 X15.195 Y120.384 E158.13153
G1 X15.059 Y119.649 E158.22123
G1 X15 Y118.744 E158.33006
G1 X15 Y103.743 E160.13018
G1 X15.04 Y102.996 E160.21995
G1 X15.159 Y102.258 E160.30965
G1 X15.357 Y101.536 E160.39949
G1 X15.63 Y100.84 E160.48921
G1 X15.977 Y100.177 E160.579
G1 X16.392 Y99.554 E160.66883
G1 X16.871 Y98.98 E160.75855
G1 X17.408 Y98.459 E160.84833
G1 X17.998 Y98 E160.93803
G1 X18.634 Y97.605 E161.02787
G1 X19.308 Y97.281 E161.11761
G1 X20.013 Y97.031 E161.20737
G0 F3600 X20.371 Y97.347
G1 F1800 X21.083 Y97.207 E161.29445
G1 X21.807 Y97.146 E161.38164
G1 X22.533 Y97.165 E161.46879
G1 X23.208 Y97.255 E161.55051
G1 X31.148 Y98.733 E162.51967
G1 X38.949 Y99.638 E163.46207
G1 X46.813 Y100.008 E164.40679
G1 X54.65 Y99.838 E165.34746
G1 X62.472 Y99.131 E166.28992
G1 X64.9 Y98.742 E166.585
G1 X64.9 Y96.369 E166.86976
G1 X64.94 Y95.644 E166.95689
G1 X65.059 Y94.927 E167.04411
G1 X65.257 Y94.228 E167.13129
G1 X65.53 Y93.555 E167.21844
G1 X65.875 Y92.916 E167.30558
G1 X66.289 Y92.319 E167.39276
G1 X66.765 Y91.771 E167.47986
G1 X67.299 Y91.278 E167.56708
G1 X67.884 Y90.848 E167.6542
G1 X68.513 Y90.484 E167.74141
G1 X69.178 Y90.191 E167.82861
G1 X69.871 Y89.973 E167.91579
G1 X70.583 Y89.833 E168.00287
G1 X71.5 Y89.769 E168.11317
G1 X151.5 Y89.769 E177.71317
G1 X152.225 Y89.809 E177.80031
G1 X152.942 Y89.928 E177.88752
G1 X153.641 Y90.126 E177.9747
G1 X154.314 Y90.399 E178.06185
G1 X154.953 Y90.744 E178.149
G1 X155.55 Y91.158 E178.23618
G1 X156.098 Y91.634 E178.32328
G1 X156.591 Y92.168 E178.41049
G1 X157.021 Y92.753 E178.49762
G1 X157.385 Y93.382 E178.58483
G1 X157.678 Y94.047 E178.67203
G1 X157.896 Y94.74 E178.75921
G1 X158.036 Y95.452 E178.84628
G1 X158.1 Y96.369 E178.95659
G1 X158.1 Y98.784 E179.24639
G1 X160.562 Y99.197 E179.54596
G1 X168.36 Y99.937 E180.48592
G1 X176.2 Y100.119 E181.42698
G1 X184.021 Y99.74 E182.3666
G1 X191.814 Y98.8 E183.30853
G1 X199.745 Y97.264 E184.27794
G1 X200.465 Y97.166 E184.36514
G1 X201.191 Y97.147 E184.45229
G1 X201.914 Y97.208 E184.53935
G1 X202.627 Y97.348 E184.62655
G1 X203.32 Y97.565 E184.71369
G1 X203.985 Y97.858 E184.80089
G1 X204.614 Y98.221 E184.88804
G1 X205.199 Y98.652 E184.97523
G1 X205.733 Y99.144 E185.06237
G1 X206.21 Y99.692 E185.14955
G1 X206.623 Y100.289 E185.23666
G1 X206.969 Y100.928 E185.32386
G1 X207.242 Y101.601 E185.41101
G1 X207.44 Y102.3 E185.49819
G1 X207.56 Y103.016 E185.58531
G1 X207.6 Y103.744 E185.6728
G1 X207.6 Y118.743 E187.47268
G1 X207.56 Y119.468 E187.55981
G1 X207.441 Y120.185 E187.64703
G1 X207.243 Y120.884 E187.73421
G1 X206.97 Y121.557 E187.82136
G1 X206.625 Y122.196 E187.90851
G1 X206.211 Y122.793 E187.99569
G1 X205.735 Y123.341 E188.08279
G1 X205.201 Y123.834 E188.17
G1 X204.616 Y124.264 E188.25713
G1 X203.987 Y124.628 E188.34433
G1 X203.322 Y124.921 E188.43154
G1 X202.629 Y125.139 E188.51871
G1 X202.04 Y125.261 E188.59089
G1 X184.273 Y128.096 E190.74991
G1 X184.043 Y128.128 E190.77777
G1 X166.187 Y130.337 E192.93683
G1 X165.956 Y130.362 E192.96471
G1 X148.034 Y131.941 E195.12368
G1 X147.803 Y131.957 E195.15147
G1 X129.836 Y132.906 E197.31051
G1 X129.604 Y132.914 E197.33837
G1 X111.616 Y133.23 E199.49726
G1 X111.384 Y133.23 E199.5251
G1 X93.396 Y132.914 E201.68399
G1 X93.164 Y132.906 E201.71185
G1 X75.197 Y131.957 E203.8709
G1 X74.966 Y131.941 E203.89868
G1 X57.043 Y130.362 E206.05777
G1 X56.812 Y130.337 E206.08565
G1 X38.957 Y128.128 E208.24459
G1 X38.727 Y128.096 E208.27246
G1 X20.96 Y125.262 E210.43145
G1 X20.25 Y125.108 E210.51863
G1 X19.562 Y124.877 E210.60572
G1 X18.903 Y124.572 E210.69286
G1 X18.281 Y124.196 E210.78008
G1 X17.704 Y123.755 E210.86722
G1 X17.18 Y123.252 E210.95439
G1 X16.713 Y122.695 E211.04161
G1 X16.311 Y122.09 E211.12878
G1 X15.978 Y121.445 E211.21588
G1 X15.718 Y120.767 E211.30302
G1 X15.533 Y120.064 E211.39025
G1 X15.427 Y119.346 E211.47735
G1 X15.4 Y118.744 E211.54966
G1 X15.4 Y103.743 E213.34978
G1 X15.44 Y103.018 E213.43691
G1 X15.559 Y102.301 E213.52413
G1 X15.757 Y101.602 E213.61131
G1 X16.03 Y100.929 E213.69846
G1 X16.375 Y100.29 E213.7856
G1 X16.789 Y99.693 E213.87278
G1 X17.265 Y99.145 E213.95989
G1 X17.799 Y98.652 E214.0471
G1 X18.384 Y98.222 E214.13422
G1 X19.013 Y97.858 E214.22143
G1 X19.678 Y97.565 E214.30863
G1 X20.371 Y97.347 E214.39581
G0 F3600 X20.723 Y97.676
